X:1
T:Title
%%score { 1 | ( 2 3 ) }
L:1/8
Q:1/4=106
M:4/4
K:Ab
V:1 treble nm="Grand Piano"
V:2 bass 
V:3 bass 
V:1
 [CE]2 [Ec]>[DB] [CA]2 [A,C]>[B,D] | [CE]2 [DF]2 [CE]3 [CE] | F F2 F [=DB]2 [DA]2 | [EG]6 z2 | %4
w: W.~J.~Kirkpatrick * * * * *||||
 [CE]2 [Ec]>[DB] [CA]2 [A,C]>[B,D] | [CE]2 [E_G]2 F3 F | E A2 A c2 B2 | [CA]6 z2 | B2 E>F E E2 E | %9
w: |||||
 [EA]2 [EB]2 [Ec]4 | d2 cB c2 B=A | B2 [Ac]2 [Gd]4 | [Ec]2 [CE]>[DF] [CE]3 [CE] | %13
w: ||||
 [DF]2 [Fd]2 [Ec]3 [Ec] | c2 BA c2 B2 | [CA]6 z2 |] %16
w: |||
V:2
 [A,,A,]2 [A,,A,]>[A,,A,] [A,,E,]2 [A,,E,]>[A,,E,] | [A,,A,]2 [A,,A,]2 [A,,A,]3 [A,,A,] | %2
 [D,A,D] [D,A,D]2 [D,F,D] [B,,F,]2 [B,,B,]2 | [E,B,]6 z2 | %4
 [A,,A,]2 [A,,A,]>[A,,A,] [A,,E,]2 [A,,E,]>[A,,E,] | [A,,A,]2 [C,A,]2 [D,A,D]3 [D,A,D] | %6
 [E,A,C] [E,A,C]2 [E,A,C] [E,A,E]2 [E,G,D]2 | [A,,A,]6 z2 | %8
 [E,G,D]2 [E,G,D]>[E,A,D] [E,B,D] [E,B,D]2 [D,G,] | [C,A,]2 [B,,G,]2 [A,,A,]4 | %10
 [E,B,E]2 [E,A,E][E,G,E] [E,A,E]2 [E,G,E][E,F,E] | [G,E]2 A,2 B,4 | %12
 [A,,A,]2 [A,,A,]>[A,,A,] [A,,A,]3 [A,,A,] | [D,A,]2 [D,A,]2 [A,,A,]3 [A,,A,] | %14
 [E,A,E]2 [E,A,D][E,A,C] [E,G,E]2 [E,G,D]2 | [A,,A,]6 z2 |] %16
V:3
 x8 | x8 | x8 | x8 | x8 | x8 | x8 | x8 | x8 | x8 | x8 | E,8 | x8 | x8 | x8 | x8 |] %16

